brandFactory_export/2.Regular/Supermercado _2Regular.svg

<?xml version="1.0" encoding="UTF-8"?>
<svg width="24px" height="24px" viewBox="0 0 24 24" version="1.1" xmlns="http://www.w3.org/2000/svg" xmlns:xlink="http://www.w3.org/1999/xlink">
    <title>2.Regular/Supermercado _2Regular</title>
    <g id="Symbols" stroke="none" stroke-width="1" fill="none" fill-rule="evenodd">
        <g id="2.Regular/Supermercado-_2Regular" fill="#5CB615" fill-rule="nonzero">
            <path d="M11.3243697,11.3008403 C11.2201681,11.405042 11.1630252,11.6605042 11.1630252,12 C11.1630252,12.3394958 11.2201681,12.5915966 11.3243697,12.6991597 C11.4252101,12.8 11.6638655,12.8605042 11.9798319,12.8605042 C12.2957983,12.8605042 12.5344538,12.8 12.6386555,12.6957983 C12.7428571,12.5915966 12.8,12.3394958 12.8,12 C12.8,11.6605042 12.7394958,11.4084034 12.6352941,11.3042017 C12.5310924,11.1966387 12.292437,11.1394958 11.9798319,11.1394958 C11.6672269,11.1394958 11.4252101,11.1966387 11.3243697,11.3008403 L11.3243697,11.3008403 Z M11.9798319,14.3798319 C11.2672269,14.3798319 10.7058824,14.1848739 10.3226891,13.7915966 C9.92268908,13.3882353 9.7210084,12.7865546 9.7210084,12.0033613 C9.7210084,11.2235294 9.92268908,10.6184874 10.3226891,10.2151261 C10.7058824,9.82184874 11.2672269,9.62352941 11.9798319,9.62352941 C12.692437,9.62352941 13.2504202,9.82184874 13.6369748,10.2151261 C14.0403361,10.6218487 14.2420168,11.2235294 14.2420168,12.0033613 C14.2420168,12.7865546 14.0369748,13.3882353 13.6369748,13.7915966 C13.2504202,14.1815126 12.692437,14.3798319 11.9798319,14.3798319 Z M13.3142857,2.71260504 L10.6890756,2.71260504 C10.7865546,3.2907563 10.8672269,3.78151261 10.8739496,3.82521008 C10.8840336,3.89915966 10.9680672,4.24201681 11.1159664,4.24201681 L12.7630252,4.24201681 C12.8705882,4.24201681 12.9344538,4.08403361 12.9747899,3.94957983 C13.0655462,3.61344538 13.2033613,3.11260504 13.3142857,2.71260504 L13.3142857,2.71260504 Z M8.84705882,1.01176471 C8.58151261,1.00840336 8.3697479,0.779831933 8.37306978,0.497478992 C8.37647059,0.221848739 8.59159664,0 8.85378151,0 L9.29747899,0 C9.78823529,0 10.205042,0.346218487 10.3394958,0.863865546 C10.3831933,1.03529412 10.4436975,1.34117647 10.5109244,1.69747899 L13.9529412,1.69747899 C14.1042017,1.69747899 14.2453782,1.77142857 14.3361345,1.89915966 C14.4268908,2.02689076 14.4571429,2.18823529 14.4134454,2.34285714 C14.4134454,2.34285714 14.0773109,3.58319328 13.892437,4.23193277 C13.7176471,4.86722689 13.2907563,5.25042017 12.7596639,5.25042017 L11.112605,5.25042017 C10.4134454,5.25042017 10.0067227,4.58823529 9.92268908,3.97983193 C9.86554622,3.6302521 9.75462185,2.94117647 9.64369748,2.31260504 C9.64033613,2.30252101 9.64033613,2.29243697 9.63697479,2.2789916 C9.54957983,1.77815126 9.46218487,1.32773109 9.41176471,1.12941176 C9.38151261,1.01848739 9.31092437,1.01176471 9.29411765,1.01176471 C9.05546218,1.01512605 8.84705882,1.01176471 8.84705882,1.01176471 L8.84705882,1.01176471 Z M11.1798319,5.69411765 L11.2134454,5.69411765 C11.3042017,5.69747899 11.6571429,5.73445378 11.6571429,6.18151261 C11.6571429,6.63193277 11.3042017,6.66890756 11.2168067,6.66890756 L11.1764706,6.66890756 C11.0823529,6.66554622 10.7361345,6.63193277 10.7361345,6.17815126 C10.7361345,5.72773109 11.0823529,5.69411765 11.1731092,5.6907563 L11.1798319,5.6907563 L11.1798319,5.69411765 Z M12.6588235,5.69411765 L12.692437,5.69411765 C12.7831933,5.69747899 13.1361345,5.73445378 13.1361345,6.18151261 C13.1361345,6.63193277 12.7831933,6.66890756 12.6957983,6.66890756 L12.6521008,6.66890756 C12.5579832,6.66554622 12.2117647,6.63193277 12.2117647,6.17815126 C12.2117647,5.72773109 12.5579832,5.69411765 12.6521008,5.6907563 L12.6588235,5.6907563 L12.6588235,5.69411765 Z M19.794958,22.0470588 L22.1815126,22.0470588 L22.1815126,12.7596639 L19.794958,12.7596639 L19.794958,22.0470588 L19.794958,22.0470588 Z M9.11932773,22.0840336 L14.8,22.0638655 L14.8,17.0487395 L9.11932773,17.0487395 L9.11932773,22.0840336 Z M5.53277311,8.54453782 L5.53277311,22.097479 L7.67394958,22.0907563 L7.67394958,16.2890756 C7.67394958,15.8689076 7.99663866,15.5294118 8.39663866,15.5294118 L15.5193277,15.5294118 C15.9159664,15.5294118 16.2420168,15.8689076 16.2420168,16.2890756 L16.2420168,22.0571429 L18.3563025,22.0504202 L18.3563025,21.210084 L18.3563025,8.54453782 C18.3260504,8.53109244 18.2857143,8.51764706 18.2487395,8.51764706 L5.64033613,8.51764706 C5.6,8.51764706 5.56302521,8.53109244 5.53277311,8.54453782 Z M1.44201681,22.0470588 L3.82857143,22.0470588 L3.82857143,12.7596639 L1.44201681,12.7596639 L1.44201681,22.0470588 L1.44201681,22.0470588 Z M22.9008403,11.2403361 C23.3008403,11.2403361 23.6235294,11.5798319 23.6235294,12 L23.6235294,22.8067227 C23.6235294,23.2235294 23.2941176,23.6235294 22.897479,23.6235294 L0.72605042,23.6235294 C0.329411765,23.6235294 0,23.2235294 0,22.8067227 L0,12 C0,11.5798319 0.322689076,11.2403361 0.722689076,11.2403361 L4.0907563,11.2403361 L4.0907563,8.39327731 C4.0907563,7.65042017 4.81680672,7.00168067 5.64033613,7.00168067 L18.2487395,7.00168067 C19.0756303,7.00168067 19.7983193,7.65378151 19.7983193,8.39663866 L19.7983193,11.2436975 L22.9008403,11.2436975 L22.9008403,11.2403361 Z" id="Supermercado-_2Regular"></path>
        </g>
    </g>
</svg>

<svg width="24" height="24" viewBox="0 0 24 24" xmlns="http://www.w3.org/2000/svg"><path d="M11.324 11.3c-.104.105-.161.36-.161.7 0 .34.057.592.161.7.101.1.34.16.656.16s.554-.06.659-.164c.104-.104.161-.357.161-.696 0-.34-.06-.592-.165-.696-.104-.107-.343-.165-.655-.165-.313 0-.555.058-.656.162zm.656 3.08c-.713 0-1.274-.195-1.657-.588-.4-.404-.602-1.005-.602-1.789 0-.78.202-1.385.602-1.788.383-.393.944-.591 1.657-.591.712 0 1.27.198 1.657.591.403.407.605 1.009.605 1.788 0 .784-.205 1.385-.605 1.789-.387.39-.945.588-1.657.588zm1.334-11.667H10.69c.098.578.178 1.069.185 1.112.01.074.094.417.242.417h1.647c.108 0 .171-.158.212-.292.09-.337.228-.837.34-1.237zM8.847 1.012a.494.494 0 01-.474-.515.493.493 0 01.48-.497h.444c.491 0 .908.346 1.042.864.044.171.105.477.172.833h3.442a.47.47 0 01.383.202c.09.128.121.29.077.444 0 0-.336 1.24-.52 1.889-.175.635-.602 1.018-1.133 1.018h-1.647c-.7 0-1.106-.662-1.19-1.27-.057-.35-.168-1.039-.28-1.667-.003-.01-.003-.02-.006-.034-.087-.5-.175-.951-.225-1.15-.03-.11-.101-.117-.118-.117-.239.003-.447 0-.447 0zm2.333 4.682h.033c.091.003.444.04.444.488 0 .45-.353.487-.44.487h-.04c-.095-.003-.44-.037-.44-.49 0-.451.345-.485.436-.488h.007v.003zm1.479 0h.033c.091.003.444.04.444.488 0 .45-.353.487-.44.487h-.044c-.094-.003-.44-.037-.44-.49 0-.451.346-.485.44-.488h.007v.003zm7.136 16.353h2.387V12.76h-2.387v9.287zm-10.676.037l5.681-.02v-5.015H9.12v5.035zM5.533 8.544v13.553l2.14-.006v-5.802c0-.42.324-.76.724-.76h7.122c.397 0 .723.34.723.76v5.768l2.114-.007V8.545a.282.282 0 00-.107-.027H5.64a.267.267 0 00-.107.027zM1.442 22.048h2.387V12.76H1.442v9.287zM22.901 11.24c.4 0 .723.34.723.76v10.807c0 .417-.33.817-.727.817H.727c-.398 0-.727-.4-.727-.817V12c0-.42.323-.76.723-.76H4.09V8.393c0-.743.726-1.391 1.55-1.391h12.608c.827 0 1.55.652 1.55 1.395v2.847H22.9v-.004z" fill="#5CB615" fill-rule="nonzero"/></svg>
